www/assets/icons/bolt.svg

<svg width="24" height="24" viewBox="0 0 24 24" xmlns="http://www.w3.org/2000/svg" fill='currentColor'><path d="M10.9963 21H9.99633L10.9963 14H7.49633C6.91633 14 6.92633 13.68 7.11633 13.34C7.30633 13 7.16633 13.26 7.18633 13.22C8.47633 10.94 10.4163 7.54 12.9963 3H13.9963L12.9963 10H16.4963C16.9863 10 17.0563 10.33 16.9663 10.51L16.8963 10.66C12.9563 17.55 10.9963 21 10.9963 21Z"/></svg>

<svg xmlns="http://www.w3.org/2000/svg" width="24" height="24" viewBox="0 0 24 24" fill='currentColor'><path d="M10.996 21h-1l1-7h-3.5c-.58 0-.57-.32-.38-.66s.05-.08.07-.12c1.29-2.28 3.23-5.68 5.81-10.22h1l-1 7h3.5c.49 0 .56.33.47.51l-.07.15c-3.94 6.89-5.9 10.34-5.9 10.34"/></svg>
